X:1
T:Title
%%score { ( 1 3 ) | ( 2 4 ) }
L:1/8
M:4/4
K:Eb
V:1 treble nm="Grand Piano"
V:3 treble 
V:2 bass 
V:4 bass 
V:1
 z4 z2[Q:1/4=100] [GB]>[FA] | G2 G2 G>[GB] E>F | G2 B,2 E2 [FA]>[EG] | %3
 [DF]2 [DF]2 [DF]>[EG] [FA]>[GB] | [Ec]2 [GB][FA] [EG]2 [GB]>[FA] | G2 G2 G>[GB] E>F | %6
 G2 B,2 C2 D2 | E>F G>A B2 [Ad]2 |[M:3/4] [Ge]6 |[M:1/4] [GB]2 | %10
[M:4/4] [Ge]2 [Ge]2 [Ad]>[Af] [Ae]>[Ac] | [GB]4 G2 F>G | A6 z2 | B6 z2 | %14
 [Ge]2 [Ge]2 [Ad]>[Af] [Ae]>[Ac] | [GB]4 [EG]2 [EG]>[EG] | [EA]2 [EB]2 [Ec]2 f>e | %17
[M:3/4] d>d [Ac]>[Ad] [Ge]2 |] %18
V:2
 z4 z2 [E,B,]>[E,B,] | [E,B,E]2 [E,B,E]2 [E,B,E]>[E,B,] [E,G,]>[E,A,D] | %2
 [E,B,E]2 [E,G,]2 [E,G,B,]2 [B,,B,]>[B,,B,] | [B,,B,]2 [B,,B,]2 [B,,B,]>[B,,B,] [B,,B,]>[B,,B,] | %4
 [E,A,]2 [E,B,][E,B,] [E,B,]2 [E,B,]>[E,B,] | [E,B,E]2 [E,B,E]2 [E,B,E]>[E,B,] [E,G,]>[E,A,D] | %6
 [E,B,E]2 B,,2 C,2 D,2 | E,>F, G,>A, B,2 [B,,B,]2 |[M:3/4] [E,B,]6 |[M:1/4] [E,B,]2 | %10
[M:4/4] [E,B,]2 [E,B,]2 [E,C]>[E,C] [E,C]>[E,C] | [E,E]4 [E,B,E]2[K:treble] D>E | %12
 F6[K:bass][K:treble] z2 | G6[K:bass] z2 | [E,B,]2 [E,B,]2 [E,C]>[E,C] [E,C]>[E,D] | %15
 [E,E]4 [E,B,]2 [E,B,]>[_D,B,] | [C,A,]2 [B,,G,]2 [A,,A,]2[K:treble] [A,CA]>[A,CA] | %17
[M:3/4] [B,A]>[B,A][K:bass] [B,,B,]>[B,,B,] [E,B,]2 |] %18
V:3
 x8 | x8 | x8 | x8 | x8 | x8 | x8 | x8 |[M:3/4] x6 |[M:1/4] x2 |[M:4/4] x8 | x8 | %12
 z2 B,>B, B,2 G>A | z2 B,>B, B,2 [B,GB]2 | x8 | x8 | x8 |[M:3/4] x6 |] %18
V:4
 x8 | x8 | x8 | x8 | x8 | x8 | x8 | x8 |[M:3/4] x6 |[M:1/4] x2 |[M:4/4] x8 | x6[K:treble] x2 | %12
 z2[K:bass] B,,>B,, B,,2[K:treble] E>F | z2[K:bass] E,>E, E,2 E,2 | x8 | x8 | x6[K:treble] x2 | %17
[M:3/4] x2[K:bass] x4 |] %18

